src/images/badges/merged-pr-10.svg

<svg width="80" height="20" viewBox="0 0 80 20" fill="none" xmlns="http://www.w3.org/2000/svg">
<path d="M79 10C79 5.02944 74.9706 1 70 1L10 1C5.02944 1 1 5.02944 1 10C1 14.9706 5.02944 19 10 19H70C74.9706 19 79 14.9706 79 10Z" fill="#FFD829"/>
<path d="M75.2123 4.38842C75.2123 4.31005 75.1339 4.20557 75.0295 4.20557C74.9511 4.20557 74.8466 4.23169 74.7944 4.28393C74.2458 4.59739 73.8017 5.32881 73.8017 6.16471C73.8017 6.73939 74.0107 7.20959 74.6376 7.20959C75.0295 7.20959 75.3429 6.94837 75.3429 6.55654C75.3429 6.11247 74.9511 5.74676 74.3764 5.87737C74.3242 5.48554 74.5854 4.93698 75.0556 4.62352C75.1601 4.54515 75.2123 4.46679 75.2123 4.38842Z" fill="black"/>
<path d="M47.4186 4.83251C47.1313 4.72802 46.6872 4.64966 46.217 4.64966C44.7542 4.64966 43.9705 5.5378 43.9966 7.36634V13.7401C43.9966 15.1245 43.5264 15.6992 42.586 15.6992C42.3248 15.6992 42.0897 15.647 41.7763 15.5686L41.7304 15.5569C41.6237 15.5294 41.4714 15.4902 41.3583 15.4902C41.1232 15.4902 40.9665 15.6209 40.9665 15.856C40.9665 16.0911 41.1232 16.2217 41.3583 16.3C41.6457 16.4045 42.0897 16.4829 42.5599 16.4829C43.9966 16.4829 44.7803 15.6209 44.7803 13.7923V7.39246C44.7803 6.008 45.2505 5.43332 46.1909 5.43332C46.4521 5.43332 46.6872 5.48556 47.0007 5.56392L47.0457 5.57543C47.1524 5.60291 47.3052 5.64229 47.4186 5.64229C47.6537 5.64229 47.8104 5.51168 47.8104 5.27658C47.8104 5.04149 47.6537 4.91088 47.4186 4.83251Z" fill="black"/>
<path d="M4.9444 6.13853V10.8405C4.9444 12.669 5.7803 13.7922 7.55659 13.8184C9.33288 13.8184 10.1949 12.6951 10.1949 10.8405V6.13853C10.1949 5.82507 10.0382 5.66833 9.77695 5.66833C9.51573 5.66833 9.359 5.85119 9.359 6.13853V10.8405C9.359 12.4078 8.67983 13.0347 7.55659 13.0347C6.45947 13.0347 5.7803 12.4078 5.7803 10.8405V6.13853C5.7803 5.82507 5.59744 5.66833 5.36235 5.66833C5.10113 5.66833 4.9444 5.85119 4.9444 6.13853Z" fill="black"/>
<path fill-rule="evenodd" clip-rule="evenodd" d="M11.8928 13.0609C11.8928 13.2437 11.9973 13.4266 12.1802 13.4266C12.2847 13.4266 12.4675 13.3482 12.6504 13.2176L14.3222 12.3556L15.994 13.2176C16.2291 13.3482 16.3858 13.4266 16.5164 13.4266C16.6993 13.4266 16.8037 13.2437 16.8037 13.0609C16.8037 12.9912 16.7921 12.9216 16.7766 12.8287C16.7689 12.7822 16.7602 12.73 16.7515 12.669L16.438 10.8144L17.7703 9.50828C18.0315 9.27318 18.136 9.11645 18.136 8.98584C18.136 8.74584 17.8052 8.68224 17.5489 8.63297C17.5262 8.62862 17.5041 8.62437 17.4829 8.62013L15.6283 8.35891L14.8185 6.68711C14.6356 6.3214 14.5311 6.16467 14.3483 6.16467C14.1654 6.16467 14.0609 6.3214 13.8781 6.68711L13.0683 8.35891L11.2137 8.62013C11.1925 8.62437 11.1705 8.6286 11.1478 8.63295C10.8914 8.68223 10.5606 8.7458 10.5606 8.98584C10.5606 9.11645 10.6912 9.27318 10.9263 9.50828L12.2585 10.8144L11.9451 12.669C11.9364 12.7297 11.9277 12.7818 11.92 12.8281C11.9045 12.9212 11.8928 12.9911 11.8928 13.0609ZM17.1172 9.24706L15.6805 10.5793L16.0462 12.4601L14.3483 11.5458L12.6504 12.4601L13.0422 10.5793L11.6055 9.24706L13.5385 9.01196L14.3744 7.26179L15.1842 9.01196L17.1172 9.24706Z" fill="black"/>
<path d="M18.6845 13.5573C18.6845 13.3744 18.8412 13.1916 19.0502 13.1916C19.0894 13.1916 19.1482 13.1981 19.207 13.2046C19.2657 13.2112 19.3245 13.2177 19.3637 13.2177C19.8078 13.2177 20.3041 12.643 20.5914 12.2512C20.0167 11.6242 19.3637 10.8145 19.3637 9.95244C19.3637 8.93368 20.1473 8.20227 21.2183 8.20227C22.2893 8.20227 23.073 8.93368 23.073 9.95244C23.073 10.8406 22.4461 11.6242 21.8453 12.2512C22.1326 12.6691 22.655 13.2177 23.073 13.2177C23.129 13.2177 23.1925 13.2102 23.2514 13.2032C23.3025 13.1972 23.3501 13.1916 23.3865 13.1916C23.5954 13.1916 23.7522 13.3744 23.7522 13.5573C23.7522 13.8707 23.4648 13.9752 23.1252 13.9752C22.211 13.9752 21.6624 13.4005 21.2183 12.7997C20.7743 13.4005 20.2257 13.9752 19.3114 13.9752C18.998 13.9752 18.6845 13.8707 18.6845 13.5573Z" fill="black"/>
<path fill-rule="evenodd" clip-rule="evenodd" d="M25.5807 13.0609C25.5807 13.2437 25.6852 13.4266 25.868 13.4266C25.9725 13.4266 26.1554 13.3482 26.3382 13.2176L28.01 12.3556L29.6818 13.2176C29.9169 13.3482 30.0737 13.4266 30.2043 13.4266C30.3871 13.4266 30.4916 13.2437 30.4916 13.0609C30.4916 12.9912 30.48 12.9216 30.4645 12.8287C30.4568 12.7822 30.4481 12.73 30.4394 12.669L30.1259 10.8144L31.4581 9.50828C31.7193 9.27318 31.8238 9.11645 31.8238 8.98584C31.8238 8.73736 31.4929 8.67797 31.2133 8.6278L31.1708 8.62013L29.3161 8.35891L28.5063 6.68711C28.3235 6.3214 28.219 6.16467 28.0361 6.16467C27.8533 6.16467 27.7488 6.3214 27.566 6.68711L26.7562 8.35891L24.9015 8.62013C24.8803 8.62437 24.8582 8.62861 24.8356 8.63296C24.5793 8.68224 24.2485 8.74582 24.2485 8.98584C24.2485 9.11645 24.353 9.27318 24.6142 9.50828L25.9464 10.8144L25.6329 12.669C25.6242 12.73 25.6155 12.7822 25.6078 12.8287C25.5923 12.9216 25.5807 12.9912 25.5807 13.0609ZM30.8051 9.24706L29.3684 10.5793L29.7341 12.4601L28.0361 11.5458L26.3382 12.4601L26.7301 10.5793L25.2934 9.24706L27.2525 9.01196L28.0623 7.26179L28.8721 9.01196L30.8051 9.24706Z" fill="black"/>
<path d="M32.3201 10.8405V6.13853C32.3201 5.85119 32.4769 5.66833 32.7381 5.66833C32.9732 5.66833 33.156 5.82507 33.156 6.13853V10.8405C33.156 12.4078 33.8352 13.0347 34.9323 13.0347C36.0556 13.0347 36.7347 12.4078 36.7347 10.8405V6.13853C36.7347 5.85119 36.8915 5.66833 37.1527 5.66833C37.4139 5.66833 37.5706 5.82507 37.5706 6.13853V10.8405C37.5706 12.6951 36.7086 13.8184 34.9323 13.8184C33.1822 13.7922 32.3201 12.669 32.3201 10.8405Z" fill="black"/>
<path d="M48.6202 10.501C48.6202 10.2397 48.8031 10.1091 49.0382 10.1091H54.576C54.8111 10.1091 54.994 10.2397 54.994 10.501C54.994 10.7622 54.785 10.8928 54.576 10.8928H49.0382C48.8031 10.8667 48.6202 10.7361 48.6202 10.501Z" fill="black"/>
<path fill-rule="evenodd" clip-rule="evenodd" d="M57.1621 13.0609C57.1621 13.2437 57.2665 13.4266 57.4494 13.4266C57.5539 13.4266 57.7367 13.3482 57.9457 13.2176L59.6175 12.3556L61.2893 13.2176C61.5244 13.3482 61.6811 13.4266 61.8118 13.4266C61.9946 13.4266 62.0991 13.2437 62.0991 13.0609C62.0991 12.9911 62.0875 12.9213 62.0719 12.8282C62.0642 12.7818 62.0555 12.7297 62.0468 12.669L61.7334 10.8144L63.0656 9.50828C63.3007 9.27318 63.4313 9.11645 63.4313 8.98584C63.4313 8.74582 63.1005 8.68224 62.8442 8.63296C62.8216 8.62861 62.7995 8.62437 62.7783 8.62013L60.9236 8.35891L60.0877 6.68711C59.9049 6.3214 59.8004 6.16467 59.6175 6.16467C59.4347 6.16467 59.3302 6.3214 59.1473 6.68711L58.3375 8.35891L56.4829 8.62013C56.4617 8.62437 56.4396 8.62862 56.417 8.63297C56.1606 8.68224 55.8298 8.74584 55.8298 8.98584C55.8298 9.11645 55.9604 9.27318 56.1955 9.50828L57.5278 10.8144L57.2143 12.669C57.2056 12.73 57.1969 12.7822 57.1892 12.8287C57.1737 12.9215 57.1621 12.9913 57.1621 13.0609ZM62.3864 9.24706L60.9497 10.5793L61.3416 12.4601L59.6436 11.5458L57.9457 12.4601L58.3375 10.5793L56.9008 9.24706L58.8339 9.01196L59.6436 7.26179L60.4534 9.01196L62.3864 9.24706Z" fill="black"/>
<path d="M69.1782 9.84786C69.1782 9.09032 69.361 8.41115 69.9096 8.41115C70.4581 8.41115 70.641 9.0642 70.641 9.84786C70.641 10.6315 70.4581 11.2846 69.9096 11.2846C69.361 11.2846 69.1782 10.6054 69.1782 9.84786Z" fill="black"/>
<path fill-rule="evenodd" clip-rule="evenodd" d="M68.7863 6.03406C71.0067 6.03406 72.6785 7.73198 72.6785 9.9001C72.6785 12.0682 71.0067 13.7661 68.7863 13.7661C66.566 13.7661 64.9203 12.0682 64.9203 9.9001C64.9203 7.73198 66.5921 6.03406 68.7863 6.03406ZM67.5064 7.81035C67.3757 7.81035 67.219 7.86259 67.0623 7.94096L66.2525 8.33278C66.0697 8.41115 65.9913 8.54176 65.9913 8.69849C65.9913 8.88134 66.1219 9.01195 66.3309 9.01195C66.4615 9.01195 66.6182 8.95971 66.8011 8.8291L67.1145 8.64625V11.5719C67.1145 11.8331 67.2713 11.9637 67.5064 11.9637C67.7153 11.9637 67.8721 11.8331 67.8721 11.5719V8.17605C67.8721 7.94096 67.7415 7.81035 67.5064 7.81035ZM71.3985 9.84786C71.3985 8.69849 70.9544 7.78422 69.9096 7.78422C68.8647 7.78422 68.4206 8.69849 68.4206 9.84786C68.4206 11.0233 68.8908 11.9376 69.9096 11.9376C70.9283 11.9376 71.3985 11.0233 71.3985 9.84786Z" fill="black"/>
</svg>

<svg xmlns="http://www.w3.org/2000/svg" width="80" height="20" fill="none"><path fill="#FFD829" d="M79 10a9 9 0 0 0-9-9H10a9 9 0 0 0 0 18h60a9 9 0 0 0 9-9Z"/><path fill="#000" d="M75.212 4.388c0-.078-.078-.182-.183-.182-.078 0-.182.026-.235.078-.548.313-.992 1.045-.992 1.88 0 .575.209 1.046.836 1.046.391 0 .705-.262.705-.653 0-.445-.392-.81-.967-.68-.052-.391.21-.94.68-1.253.104-.079.156-.157.156-.236ZM47.419 4.833c-.288-.105-.732-.183-1.202-.183-1.463 0-2.246.888-2.22 2.716v6.374c0 1.384-.47 1.96-1.411 1.96-.261 0-.496-.053-.81-.131l-.046-.012a1.695 1.695 0 0 0-.372-.067c-.235 0-.391.13-.391.366 0 .235.156.366.391.444.288.104.732.183 1.202.183 1.437 0 2.22-.862 2.22-2.69v-6.4c0-1.385.47-1.96 1.41-1.96.262 0 .497.053.81.13l.046.012c.106.028.26.067.373.067.235 0 .391-.13.391-.365 0-.236-.156-.366-.391-.444ZM4.944 6.139v4.702c0 1.828.836 2.951 2.613 2.977 1.776 0 2.638-1.123 2.638-2.977V6.139c0-.314-.157-.47-.418-.47s-.418.182-.418.47v4.702c0 1.567-.68 2.194-1.802 2.194-1.098 0-1.777-.627-1.777-2.194V6.139c0-.314-.183-.47-.418-.47-.26 0-.418.182-.418.47Z"/><path fill="#000" fill-rule="evenodd" d="M11.893 13.06c0 .184.104.367.287.367.105 0 .287-.079.47-.21l1.672-.861 1.672.862c.235.13.392.209.522.209.183 0 .288-.183.288-.366 0-.07-.012-.14-.027-.232l-.026-.16-.313-1.855 1.332-1.306c.262-.235.366-.392.366-.522 0-.24-.33-.304-.587-.353a8.441 8.441 0 0 1-.066-.013l-1.855-.261-.81-1.672c-.182-.366-.287-.522-.47-.522s-.287.156-.47.522l-.81 1.672-1.854.261a8.416 8.416 0 0 1-.066.013c-.257.05-.587.113-.587.353 0 .13.13.287.365.522l1.332 1.306-.313 1.855-.025.16c-.015.092-.027.162-.027.232Zm5.224-3.813L15.68 10.58l.366 1.881-1.698-.914-1.698.914.392-1.88-1.437-1.333 1.934-.235.835-1.75.81 1.75 1.933.235Z" clip-rule="evenodd"/><path fill="#000" d="M18.684 13.557c0-.183.157-.365.366-.365.04 0 .098.006.157.013.059.006.117.013.157.013.444 0 .94-.575 1.227-.967-.574-.627-1.227-1.436-1.227-2.299 0-1.018.783-1.75 1.854-1.75 1.071 0 1.855.732 1.855 1.75 0 .889-.627 1.672-1.228 2.3.288.417.81.966 1.228.966.056 0 .12-.008.178-.015.051-.006.1-.011.136-.011.208 0 .365.182.365.365 0 .314-.287.418-.627.418-.914 0-1.463-.575-1.907-1.175-.444.6-.992 1.175-1.907 1.175-.313 0-.627-.104-.627-.418Z"/><path fill="#000" fill-rule="evenodd" d="M25.58 13.06c0 .184.105.367.288.367.105 0 .287-.079.47-.21l1.672-.861 1.672.862c.235.13.392.209.522.209.183 0 .288-.183.288-.366 0-.07-.012-.14-.027-.232l-.026-.16-.313-1.855 1.332-1.306c.261-.235.366-.392.366-.522 0-.249-.331-.308-.61-.358l-.043-.008-1.855-.261-.81-1.672c-.183-.366-.287-.522-.47-.522s-.287.156-.47.522l-.81 1.672-1.855.261-.065.013c-.257.05-.587.113-.587.353 0 .13.104.287.365.522l1.332 1.306-.313 1.855-.025.16a1.427 1.427 0 0 0-.027.232Zm5.225-3.813-1.437 1.332.366 1.881-1.698-.914-1.698.914.392-1.88-1.437-1.333 1.96-.235.81-1.75.81 1.75 1.932.235Z" clip-rule="evenodd"/><path fill="#000" d="M32.32 10.84V6.14c0-.288.157-.47.418-.47.235 0 .418.156.418.47v4.702c0 1.567.68 2.194 1.776 2.194 1.124 0 1.803-.627 1.803-2.194V6.139c0-.288.157-.47.418-.47.26 0 .418.156.418.47v4.702c0 1.854-.862 2.977-2.639 2.977-1.75-.026-2.612-1.149-2.612-2.977ZM48.62 10.501c0-.261.183-.392.418-.392h5.538c.235 0 .418.13.418.392 0 .261-.209.392-.418.392h-5.538c-.235-.026-.418-.157-.418-.392Z"/><path fill="#000" fill-rule="evenodd" d="M57.162 13.06c0 .184.105.367.287.367.105 0 .288-.079.497-.21l1.672-.861 1.671.862c.235.13.392.209.523.209.183 0 .287-.183.287-.366 0-.07-.011-.14-.027-.233-.008-.046-.017-.098-.025-.159l-.314-1.855 1.333-1.306c.235-.235.365-.392.365-.522 0-.24-.33-.304-.587-.353l-.066-.013-1.854-.261-.836-1.672c-.183-.366-.288-.522-.47-.522-.183 0-.288.156-.47.522l-.81 1.672-1.855.261-.066.013c-.256.05-.587.113-.587.353 0 .13.13.287.366.522l1.332 1.306-.314 1.855c-.008.061-.017.113-.025.16a1.427 1.427 0 0 0-.027.232Zm5.224-3.813L60.95 10.58l.392 1.881-1.698-.914-1.698.914.392-1.88L56.9 9.246l1.933-.235.81-1.75.81 1.75 1.932.235Z" clip-rule="evenodd"/><path fill="#000" d="M69.178 9.848c0-.758.183-1.437.732-1.437.548 0 .731.653.731 1.437s-.183 1.437-.731 1.437c-.549 0-.732-.68-.732-1.437Z"/><path fill="#000" fill-rule="evenodd" d="M68.786 6.034c2.22 0 3.892 1.698 3.892 3.866s-1.671 3.866-3.892 3.866c-2.22 0-3.866-1.698-3.866-3.866s1.672-3.866 3.866-3.866Zm-1.28 1.776c-.13 0-.287.053-.444.131l-.81.392c-.182.078-.26.209-.26.365 0 .183.13.314.339.314.13 0 .287-.052.47-.183l.314-.183v2.926c0 .261.156.392.391.392.21 0 .366-.13.366-.392V8.176c0-.235-.13-.366-.366-.366Zm3.892 2.038c0-1.15-.444-2.064-1.488-2.064-1.045 0-1.49.914-1.49 2.064 0 1.175.47 2.09 1.49 2.09 1.018 0 1.489-.915 1.489-2.09Z" clip-rule="evenodd"/></svg>
